resources/icons/customico/AllIcons/expui/nodes/libraryFolder_dark-open.svg

<?xml version="1.0" encoding="UTF-8"?>
<svg id="Layer_1" data-name="Layer 1" xmlns="http://www.w3.org/2000/svg" viewBox="0 0 16 16">
  <path d="m9,8H1v4.133c0,1.031.731,1.867,1.633,1.867h4.367v-4c0-1.103.897-2,2-2Z" style="fill: #43454a;"/>
  <path d="m2,3.867c0-.608.405-.867.633-.867h3.488l1.919,2h4.96c.552,0,1,.448,1,1v3h1v-3c0-1.105-.895-2-2-2h-4.533l-1.623-1.692c-.189-.197-.449-.308-.722-.308h-3.488c-.902,0-1.633.836-1.633,1.867v8.267c0,1.031.731,1.867,1.633,1.867h4.367v-1H2.633c-.229,0-.633-.258-.633-.867v-3.133h5.278c.347-.595.985-1,1.722-1H2V3.867Z" style="fill: #ced0d6; fill-rule: evenodd;"/>
  <g>
    <path d="m10,9c0-.552.448-1,1-1h1c.552,0,1,.448,1,1v1h1c.552,0,1,.448,1,1v3c0,.552-.448,1-1,1h-5c-.552,0-1-.448-1-1v-4c0-.552.448-1,1-1h1Zm1,0h1v5h-1v-5Zm-1,1h-1v4h1v-4Zm3,4h1v-3h-1v3Z" style="fill: #3574f0; fill-rule: evenodd;"/>
    <path d="m11,9h1v5h-1v-5Z" style="fill: #25324d;"/>
    <path d="m9,10h1v4h-1v-4Z" style="fill: #25324d;"/>
    <path d="m14,11h-1v3h1v-3Z" style="fill: #25324d;"/>
  </g>
</svg>

<?xml version="1.0" encoding="utf-8"?>
<!-- Generator: Adobe Illustrator 27.2.0, SVG Export Plug-In . SVG Version: 6.00 Build 0)  -->
<svg version="1.1" id="Layer_1" xmlns="http://www.w3.org/2000/svg" xmlns:xlink="http://www.w3.org/1999/xlink" x="0px" y="0px"
	 viewBox="0 0 16 16" style="enable-background:new 0 0 16 16;" xml:space="preserve">
<style type="text/css">
	.st0{fill:#43454A;}
	.st1{fill-rule:evenodd;clip-rule:evenodd;fill:#CED0D6;}
	.st2{fill:#25324D;}
	.st3{fill-rule:evenodd;clip-rule:evenodd;fill:#548AF7;}
</style>
<path class="st0" d="M9,8H1v4.133C1,13.164,1.731,14,2.633,14H7v-4C7,8.897,7.897,8,9,8z"/>
<path class="st1" d="M13,4H8.467L6.843,2.308C6.655,2.111,6.394,2,6.122,2H2.633C1.731,2,1,2.836,1,3.867v8.267
	C1,13.164,1.731,14,2.633,14H7v-1H2.633C2.405,13,2,12.742,2,12.133V9h5.278C7.625,8.405,8.263,8,9,8H2V3.867
	C2,3.258,2.405,3,2.633,3h3.488L8.04,5H13c0.552,0,1,0.448,1,1v1v1v1c0.366,0,0.705,0.106,1,0.278V6C15,4.895,14.105,4,13,4z"/>
<path class="st2" d="M11,9h1v5h-1V9z"/>
<path class="st2" d="M9,10h1v4H9V10z"/>
<path class="st2" d="M14,11h-1v3h1V11z"/>
<path class="st3" d="M10,9c0-0.552,0.448-1,1-1h1c0.552,0,1,0.448,1,1v1h1c0.552,0,1,0.448,1,1v3c0,0.552-0.448,1-1,1H9
	c-0.552,0-1-0.448-1-1v-4c0-0.552,0.448-1,1-1H10z M11,9h1v5h-1V9z M10,10H9v4h1V10z M13,14h1v-3h-1V14z"/>
</svg>
